!!!COM: Georges Bizet
!!!CNT: Francais
!!!TXO: Francais
!!!OTL: Berceuse sur un Viel Air
!!!LYR: Marceline Desbordes-Valmore
!!!ENC: Jacob Pegg
!!!YOR: Romantic French Song 1830-1870 -David Tunley, ed.,
!!!YOR: New York: Garland Publishing, Inc., 1995, Vol. 4
!!!ODT: 1868/
!!NB: Vocal melody and text only encoded.
!!NB: First instance of melodic material only encoded.
**kern	**silbe
*clef G2	*
*k[b-e-a-]	*
*M6/8	*
!!created: 5/6/03 22:10
!!pasted to vi: 5/6/03 23:06
!!encode/edit/analyze/proof: 55 min.
=11	=11
{4b-	{Si
8cc	l'en-
4b-	-fant
8a-	som-
=12	=12
(4g	-meil-
8e-)	|
4B-}	-le,}
8r	.
=13	=13
{4e-	{Il
8g	ver-
4b-	-ra
8b-	l'a-
=14	=14
(8b-	-beil-
8a-	|
8g)	|
4f}	-le,}
8r	.
=15	=15
{4b-	{Quand
8cc	elle
4b-	au-
8a-	-ra
=16	=16
4g	fait
8e-	son
4B-}	miel,}
8r	.
=17	=17
{4e-	{Dan-
8f	-ser
4g	en-
8b-	-tre
=18	=18
4g	terre
8f	et
4.e-}	ciel.}
=23	=23
{4cc	{Si
8dd	l'en-
4cc	-fant
8b-	re-
=24	=24
(4an	-po-
8f)	|
4c}	-se}
8r	.
=25	=25
{4f	{Un
8an	an-
4cc	-ge
8cc	tout
=26	=26
(8cc	ro-
8b-	|
8an)	|
4g}	-se,}
8r	.
=27	=27
{4cc	{Que
8dd	la
4cc	nuit
8b-	seule
=28	=28
4an	on
8f	peut
4c}	voir,}
8r	.
=29	=29
{4f	{Vien-
8g	-dra
4an	lui
8b-	di-
=30	=30
8cc	-re:
8r	.
8dd	<<bon-
4.b-}	-soir!>>}
=35	=35
{4ff	{Si
8ee-	mon
4cc	en-
8dd	-fant
=36	=36
[4.b-	m'ai-
4b-]}	-me,}
8r	.
!!skipped 37&38; same as prior two. Did same with 41-42.
=39	=39
(64b-q	.
{4ee-)	{<<J'ai-
8b-	-me
4a-	cet
8g	en-
=40	=40
4g	-fant
8f	qui
4B-}	dort;>>}
8r	.
=43	=43
{4b-	{Met-
8cc	-tez
4dd	lui
8g	des
=44	=44
[4.an	ai-
4an]}	-les,}
8r	.
=45	=45
{4cc	{Comme
8dd	aux
4ee-	tour-
8an	-te-
=46	=46
[4.b-	-rel-
4b-]}	-les,}
8r	.
=47	=47
{4dd	{Pour
8cc	ven-
4b-	-ir
8an	dans
=48	=48
4b-	mon
8cc	so-
4dd	-leil
8ee-	Dan-
=49	=49
8ff}	-ser,}
8r	.
{8b-	{dan-
4.ff	-ser
=50	=50
(8dd	jus-
8cc)	|
8dd	-qu'a
4g	son
8cc	re/-
=51	=51
[4.b-	-veil!
4b-]}	|}
8r	.
*-	*-
